.forestry/content/images/phone-1.svg

<svg height="22" viewBox="0 0 22 22" width="22" xmlns="http://www.w3.org/2000/svg"><path d="m20 14.92v3c.0022858.5631451-.232952 1.1011584-.6479221 1.4818649s-.971214.5688232-1.5320779.5181351c-3.0771661-.3343592-6.0330008-1.3858555-8.63-3.07-2.41617188-1.5353361-4.46466385-3.5838281-6-6-1.69002194-2.60879602-2.741757-5.57900544-3.07-8.67-.05052679-.55912767.13627201-1.11374758.51476578-1.52837894.37849377-.41463137.91382846-.65109237 1.47523422-.65171938h3c1.00386406-.00978184 1.85950085.7260658 2 1.72009832.12662301.96006645.36144946 1.90272688.7 2.81.274735.73087503.09901507 1.55480626-.45 2.11l-1.27 1.27c1.42355547 2.5035458 3.49645417 4.5764445 6 6l1.27-1.27c.5551937-.5490151 1.379125-.724735 2.11-.45.9072731.3385505 1.8499335.573377 2.81.7 1.0055627.1418603 1.74519 1.0147926 1.72 2.03z" fill="none" stroke="#525252" stroke-linecap="round" stroke-linejoin="round" stroke-width="2" transform="translate(1 1)"/></svg>

<?xml version="1.0" encoding="UTF-8"?>
<svg width="22px" height="22px" viewBox="0 0 22 22" version="1.1" xmlns="http://www.w3.org/2000/svg" xmlns:xlink="http://www.w3.org/1999/xlink">
    <title>6DDF282F-FF80-4C84-9380-E1B5BE1467D1</title>
    <g id="Symbols" stroke="none" stroke-width="1" fill="none" fill-rule="evenodd" stroke-linecap="round" stroke-linejoin="round">
        <g id="quick-contact" transform="translate(-1002.000000, -423.000000)" stroke="#525252" stroke-width="2">
            <g id="phone" transform="translate(1003.000000, 424.000000)">
                <path d="M20,14.92 L20,17.92 C20.0022858,18.4831451 19.767048,19.0211584 19.3520779,19.4018649 C18.9371078,19.7825714 18.3808639,19.9706881 17.82,19.92 C14.7428339,19.5856408 11.7869992,18.5341445 9.19,16.85 C6.77382812,15.3146639 4.72533615,13.2661719 3.19,10.85 C1.49997806,8.24120398 0.448243002,5.27099456 0.12,2.18 C0.0694732103,1.62087233 0.256272008,1.06625242 0.63476578,0.651621056 C1.01325955,0.236989688 1.54859424,0.000528690239 2.11,-9.8318943e-05 L5.11,-9.8318943e-05 C6.11386406,-0.00988015716 6.96950085,0.725967482 7.11,1.72 C7.23662301,2.68006645 7.47144946,3.62272688 7.81,4.53 C8.084735,5.26087503 7.90901507,6.08480626 7.36,6.64 L6.09,7.91 C7.51355547,10.4135458 9.58645417,12.4864445 12.09,13.91 L13.36,12.64 C13.9151937,12.0909849 14.739125,11.915265 15.47,12.19 C16.3772731,12.5285505 17.3199335,12.763377 18.28,12.89 C19.2855627,13.0318603 20.02519,13.9047926 20,14.92 Z" id="Shape"></path>
            </g>
        </g>
    </g>
</svg>
